X:178
T:Cameron Highlanders, The
C:James Scott Skinner
D:Bumblebees, Buzzin'
N:A simplified version
Z:Nigel Gatherer
M:4/4
L:1/8
K:A
e2|A2 ce A2 ce|f2 ec eaga|ABce ABce|cB B2 B2 e2|A2 ce A2 ce|f2 ec eaga|
faea caBa|cA (3AAA A2::a2|faea caBa|cA (3AAA A2 a2|faea caBa|
cB (3BBB B2 a2|faea caBa|cA (3AAA a3 e|(3fga ea caBa|cA (3AAA A2:|
<end>
<start>
